_includes/icons.svg

<svg display="none" version="1.1" xmlns="http://www.w3.org/2000/svg">
	<symbol id="dribbble" viewBox="0 0 20 20">
		<path fill="#ea4c89" d="M10,20 C4.48559458,20 0,15.5141784 0,10 C0,4.48582157 4.48559458,0.000258966723 10,1.77635684e-15 C15.5138882,0.000258966723 20,4.48582157 20,10 C20,15.5141784 15.5138882,20 10,20 Z M9.46154244,7.20471319 C8.10841566,4.80745824 6.66218383,2.7867409 6.37097191,2.38586042 C4.04438008,3.49734559 2.3025397,5.64210799 1.74339213,8.22297035 L1.82589355,8.22297035 C2.60409662,8.22297035 5.82941085,8.1603004 9.46154244,7.20471319 Z M11.4671805,11.4579826 C6.83960068,13.0700505 5.08819118,16.2289266 4.84663529,16.7025767 C6.27450473,17.8042212 8.06134589,18.4614787 10,18.4614787 C11.156313,18.4614787 12.2583148,18.2273728 13.2630735,17.8049981 C13.1283298,17.0185161 12.6356489,14.4798653 11.4767496,11.454875 C11.4733875,11.4556519 11.4705426,11.4569468 11.4671805,11.4579826 Z M15.5658718,3.66360223 C14.0785186,2.35789201 12.1300367,1.56519487 10,1.56519487 C9.34464387,1.56519487 8.70713288,1.64081316 8.09470853,1.78324485 C8.43816273,2.24783115 9.88361868,4.24731322 11.2028656,6.66321378 C14.0531733,5.58332254 15.3305229,3.98575683 15.5658718,3.66360223 Z M10.5782858,10.038845 C10.6711323,10.0093228 10.7652718,9.98109543 10.8594114,9.95442186 C10.6584596,9.50252493 10.4412145,9.05011006 10.2136244,8.6039104 C6.46355972,9.71876214 2.82418662,9.80603392 1.77649615,9.80603392 C1.67951172,9.80603392 1.60554492,9.80525702 1.55511302,9.80422116 C1.55304402,9.87388321 1.55123364,9.94328629 1.55123364,10.0129483 C1.55149227,12.1584876 2.35581648,14.1186068 3.67816686,15.6102551 C4.03506957,15.0200699 6.3564889,11.4051534 10.5782858,10.038845 Z M13.1650546,11.0400104 C14.2155899,13.9417325 14.6712874,16.3213777 14.7845653,16.9719021 C16.6342523,15.6957141 17.9524647,13.7021883 18.3341954,11.3971255 C18.012983,11.2989771 16.6319247,10.9120808 14.8665494,10.9125987 C14.3283505,10.9118218 13.7552372,10.9483361 13.1650546,11.0400104 Z M11.9014121,8.015538 C12.0907257,8.40554189 12.2733151,8.80176097 12.4429732,9.20108766 C12.5009052,9.33600932 12.5565096,9.47067202 12.6115968,9.60481678 C13.2656598,9.52427813 13.9179124,9.49268419 14.5375782,9.49268419 C16.4586458,9.49268419 18.066777,9.79386249 18.4459215,9.87077561 C18.4135933,7.92386378 17.7197021,6.1354396 16.5791652,4.72018646 C16.2843325,5.10319824 14.8572389,6.79580474 11.9014121,8.015538 Z"></path>
	</symbol>
	<symbol id="github" viewBox="0 0 20 20">
		<path fill="#4078c0" d="M9.99907916,0 C4.47773105,0 0,4.5904205 0,10.2533868 C0,14.7833822 2.86503576,18.6260419 6.83876117,19.9818304 C7.33908346,20.0762447 7.5214095,19.7596422 7.5214095,19.4877292 C7.5214095,19.2447699 7.512815,18.5996059 7.50790386,17.7442129 C4.72635747,18.3635703 4.13947635,16.3695415 4.13947635,16.3695415 C3.68458209,15.1849574 3.02894503,14.8696139 3.02894503,14.8696139 C2.12099819,14.2338913 3.09770097,14.2464799 3.09770097,14.2464799 C4.10141502,14.3188641 4.62936247,15.30329 4.62936247,15.30329 C5.52134811,16.869937 6.97013414,16.417378 7.53982627,16.1549064 C7.63068234,15.4927479 7.88913104,15.0408184 8.17459099,14.784641 C5.95414224,14.525946 3.6195095,13.6460053 3.6195095,9.7171139 C3.6195095,8.59799041 4.00933116,7.68217225 4.64900703,6.96588286 C4.54587311,6.7065584 4.20270727,5.66359573 4.74722981,4.25241751 C4.74722981,4.25241751 5.5864207,3.97672792 7.4968538,5.30356275 C8.29430001,5.07570971 9.15006599,4.96241262 10.0003069,4.95800662 C10.849934,4.96241262 11.7050861,5.07570971 12.5037601,5.30356275 C14.4129654,3.97672792 15.2509285,4.25241751 15.2509285,4.25241751 C15.7966788,5.66359573 15.453513,6.7065584 15.350993,6.96588286 C15.9918966,7.68217225 16.3786488,8.59799041 16.3786488,9.7171139 C16.3786488,13.6560761 14.0403327,14.5227989 11.8131312,14.7764585 C12.1716443,15.0930609 12.4914822,15.7187126 12.4914822,16.6754436 C12.4914822,18.045709 12.4792044,19.1516145 12.4792044,19.4877292 C12.4792044,19.7621599 12.6596888,20.0812801 13.1667639,19.981201 C17.1374198,18.6222653 20,14.7821233 20,10.2533868 C20,4.5904205 15.5222689,0 9.99907916,0"></path>
	</symbol>
	<symbol id="codepen" viewBox="0 0 20 20" fill-rule="evenodd">
		<path fill="#ffffff" d="M10.0000853,0 C4.47705577,0 0,4.47708886 0,10.000064 C0,15.5230817 4.47705577,20 10.0000853,20 C15.5229442,20 20,15.5230817 20,10.000064 C20,4.47708886 15.5229442,0 10.0000853,0 Z M15.1203895,10.8893508 L13.7910184,10.000064 L15.1203895,9.11081977 L15.1203895,10.8893508 Z M10.5314159,14.6588218 L10.5314159,12.1803046 L12.8352185,10.6395506 L14.6949311,11.8833072 L10.5314159,14.6588218 Z M10.0000938,11.257208 L8.12055579,10.000064 L10.0000938,8.74291988 L11.8794613,10.000064 L10.0000938,11.257208 Z M9.46860118,14.6588218 L5.30504334,11.8833072 L7.16492643,10.6395506 L9.46860118,12.1803046 L9.46860118,14.6588218 Z M4.87962754,9.11081977 L6.20912653,10.000064 L4.87962754,10.8893508 L4.87962754,9.11081977 Z M9.46860118,5.34130613 L9.46860118,7.81982328 L7.16492643,9.36091836 L5.30504334,8.11677805 L9.46860118,5.34130613 Z M10.5314159,5.34130613 L14.6949311,8.11677805 L12.8352185,9.36091836 L10.5314159,7.81982328 L10.5314159,5.34130613 Z M16.1784717,8.04685618 C16.1773632,8.03905392 16.1754019,8.03159275 16.1741229,8.02379049 C16.1714795,8.00878287 16.1687508,7.99381788 16.1648284,7.97919398 C16.1625261,7.97041111 16.1592858,7.96196932 16.1565571,7.95352754 C16.1522936,7.94048114 16.1480727,7.92747738 16.1428712,7.9148147 C16.1392471,7.90603183 16.1350689,7.89724896 16.1310185,7.88880717 C16.1254333,7.87674139 16.1196349,7.86501668 16.1129411,7.85367569 C16.1080807,7.84519127 16.1028792,7.83704793 16.0978482,7.82894723 C16.0906854,7.81786205 16.0833522,7.80711796 16.0753367,7.79671495 C16.0695383,7.78891269 16.0633562,7.78111044 16.057174,7.77360663 C16.0486896,7.76388578 16.0399067,7.7541223 16.0306548,7.74499835 C16.0237053,7.73787825 16.0167983,7.73071553 16.0095077,7.72419233 C15.9997442,7.71540946 15.9896822,7.70692504 15.9794071,7.69882433 C15.9714769,7.69264222 15.963632,7.6864601 15.9553608,7.68061906 C15.9522484,7.67865784 15.9495197,7.67605709 15.9465779,7.67409587 L10.2947469,3.906245 C10.1162326,3.78720728 9.88378449,3.78720728 9.70522752,3.906245 L4.05343918,7.67409587 C4.05049734,7.67605709 4.04772604,7.67865784 4.04465629,7.68061906 C4.0363424,7.6864601 4.02854012,7.69264222 4.02073785,7.69882433 C4.01033482,7.70692504 4.00023023,7.71540946 3.99067991,7.72419233 C3.98317608,7.73071553 3.97635442,7.73787825 3.96936222,7.74499835 C3.96011034,7.7541223 3.95132745,7.76388578 3.94301355,7.77360663 C3.93666088,7.78111044 3.93047875,7.78891269 3.92463771,7.79671495 C3.91683543,7.80711796 3.90933161,7.81786205 3.9023394,7.82894723 C3.89696735,7.83704793 3.89193637,7.84519127 3.88707594,7.85367569 C3.88055273,7.86501668 3.87471168,7.87674139 3.86899854,7.88880717 C3.86494818,7.89724896 3.86072727,7.90603183 3.8571459,7.9148147 C3.85194439,7.92747738 3.84772348,7.94048114 3.84345995,7.95352754 C3.84068865,7.96196932 3.8376189,7.97041111 3.83518868,7.97919398 C3.83126623,7.99381788 3.82866547,8.00878287 3.82589417,8.02379049 C3.82461511,8.03159275 3.82265388,8.03905392 3.82167327,8.04685618 C3.81856089,8.06962342 3.81681283,8.09273175 3.81681283,8.11613852 L3.81681283,11.8839894 C3.81681283,11.9073962 3.81856089,11.9305045 3.82167327,11.9536128 C3.82265388,11.9611166 3.82461511,11.9688762 3.82589417,11.9763374 C3.82866547,11.991345 3.83126623,12.0062674 3.83518868,12.0209339 C3.8376189,12.0297168 3.84068865,12.0381586 3.84345995,12.046643 C3.84772348,12.0596041 3.85194439,12.0726505 3.8571459,12.0856543 C3.86072727,12.0944798 3.86494818,12.1029216 3.86899854,12.1113634 C3.87471168,12.1233439 3.88055273,12.1350686 3.88707594,12.1467933 C3.89193637,12.1549793 3.89696735,12.1630373 3.9023394,12.1711807 C3.90933161,12.1822659 3.91683543,12.1930099 3.92463771,12.203413 C3.93047875,12.2115563 3.93666088,12.2190175 3.94301355,12.2264786 C3.95132745,12.2362421 3.96011034,12.2460056 3.96936222,12.2551296 C3.97635442,12.2622497 3.98317608,12.2694124 3.99067991,12.2758929 C4.00023023,12.2847611 4.01033482,12.2932029 4.02073785,12.3013036 C4.02854012,12.3075283 4.0363424,12.3136678 4.04465629,12.3195088 C4.04772604,12.3214701 4.05049734,12.3240708 4.05343918,12.3259894 L9.70522752,16.0938829 C9.79450601,16.1534018 9.8972999,16.1833317 10.0000938,16.1833317 C10.1027172,16.1833317 10.2054684,16.1534018 10.2947469,16.0938829 L15.9465779,12.3259894 C15.9495197,12.3240708 15.9522484,12.3214701 15.9553608,12.3195088 C15.963632,12.3136678 15.9714769,12.3075283 15.9794071,12.3013036 C15.9896822,12.2932029 15.9997442,12.2847611 16.0095077,12.2758929 C16.0167983,12.2694124 16.0237053,12.2622497 16.0306548,12.2551296 C16.0399067,12.2460056 16.0486896,12.2362421 16.057174,12.2264786 C16.0633562,12.2190175 16.0695383,12.2115563 16.0753367,12.203413 C16.0833522,12.1930099 16.0906854,12.1822659 16.0978482,12.1711807 C16.1028792,12.1630373 16.1080807,12.1549793 16.1129411,12.1467933 C16.1196349,12.1350686 16.1254333,12.1233439 16.1310185,12.1113634 C16.1350689,12.1029216 16.1392471,12.0944798 16.1428712,12.0856543 C16.1480727,12.0726505 16.1522936,12.0596041 16.1565571,12.046643 C16.1592858,12.0381586 16.1625261,12.0297168 16.1648284,12.0209339 C16.1687508,12.0062674 16.1714795,11.991345 16.1741229,11.9763374 C16.1754019,11.9688762 16.1773632,11.9611166 16.1784717,11.9536128 C16.1814135,11.9305045 16.1832469,11.9073962 16.1832469,11.8839894 L16.1832469,8.11613852 C16.1832469,8.09273175 16.1814135,8.06962342 16.1784717,8.04685618 L16.1784717,8.04685618 Z"></path>
	</symbol>
	<symbol id="twitter" viewBox="0 0 20 17">
		<path fill="#55acee" d="M6.28991551,17 C3.97271297,17 1.81586744,16.2895561 0,15.0718928 C0.321006621,15.1115277 0.64764622,15.1318042 0.978821464,15.1318042 C2.90120341,15.1318042 4.67047076,14.4456922 6.07476499,13.2946736 C4.27923479,13.2600122 2.76389041,12.0192413 2.24177914,10.314176 C2.4922638,10.3642935 2.74933246,10.3911503 3.01371667,10.3911503 C3.38798054,10.3911503 3.75046637,10.3387374 4.09480961,10.2406449 C2.21763781,9.84643844 0.803321263,8.11183826 0.803321263,6.03246046 C0.803321263,6.01440287 0.803321263,5.99642179 0.803613885,5.97851722 C1.35688943,6.29995769 1.98953875,6.49300561 2.66220418,6.51527154 C1.56121292,5.74568139 0.836753356,4.43206798 0.836753356,2.94315819 C0.836753356,2.15665817 1.03910165,1.41943397 1.39229672,0.785581831 C3.41607228,3.38204953 6.43951864,5.09063454 9.84973847,5.26960365 C9.77980175,4.95550865 9.74344343,4.62794696 9.74344343,4.29158603 C9.74344343,1.92152688 11.5806723,0 13.8468122,0 C15.0269578,0 16.0933465,0.521221723 16.8418742,1.35531421 C17.7765097,1.1628019 18.6546692,0.80562882 19.447456,0.313865459 C19.1410805,1.31598538 18.4905081,2.15704075 17.6432935,2.68820945 C18.4733165,2.58445481 19.2641282,2.3537614 20,2.01242697 C19.4498701,2.87307024 18.7541607,3.62896416 17.952522,4.23404658 C17.9604228,4.4180657 17.9643732,4.60315603 17.9643732,4.78924106 C17.9643732,10.4604731 13.8372289,17 6.28991551,17"></path>
	</symbol>
	<symbol id="experiment" viewBox="-3 0 20 20">
		<path d="M7,0 C3.13400938,0 0,3.19796875 0,7.14285714 C0,9.4796875 1.09983125,11.554308 2.8,12.8574777 L2.8,17.1428571 C2.8,17.9318304 3.42678438,18.5714286 4.2,18.5714286 C4.2,19.3604018 4.82678437,20 5.6,20 L8.4,20 C9.17321562,20 9.8,19.3604018 9.8,18.5714286 C10.5732156,18.5714286 11.2,17.9318304 11.2,17.1428571 L11.2,12.8574777 C12.9001688,11.554308 14,9.4796875 14,7.14285714 C14,3.19796875 10.8659906,0 7,0 L7,0 Z M9.8,16.4285714 C9.8,16.823058 9.48661875,17.1428571 9.1,17.1428571 L4.9,17.1428571 C4.51338125,17.1428571 4.2,16.823058 4.2,16.4285714 L4.2,15.7142857 L9.8,15.7142857 L9.8,16.4285714 L9.8,16.4285714 Z M11.2,10.9220313 C10.4730063,11.659308 9.8,11.8682143 9.8,13.6908036 L9.8,14.2857143 L8.4,14.2857143 L8.4,11.4285714 L11.2,8.57142857 L11.2,7.14285714 L9.8,5.71428571 L8.4,7.14285714 L7,5.71428571 L5.6,7.14285714 L4.2,5.71428571 L2.8,7.14285714 L2.8,8.57142857 L5.6,11.4285714 L5.6,14.2857143 L4.2,14.2857143 L4.2,13.6908036 C4.2,11.8682143 3.52699375,11.659308 2.8,10.9220313 C1.92887188,9.91473214 1.4,8.59191964 1.4,7.14285714 C1.4,3.98694196 3.90720313,1.42857143 7,1.42857143 C10.0927969,1.42857143 12.6,3.98694196 12.6,7.14285714 C12.6,8.59191964 12.0711281,9.91473214 11.2,10.9220313 L11.2,10.9220313 Z M7,11.4285714 L4.2,8.57142857 L4.2,7.14285714 L5.6,8.57142857 L7,7.14285714 L8.4,8.57142857 L9.8,7.14285714 L9.8,8.57142857 L7,11.4285714 L7,11.4285714 Z"></path>
	</symbol>
	<symbol id="link" viewBox="0 0 20 21">
		<path d="M10,1.65789474 L7.73026316,4.04111842 C9.04605263,3.76480263 10.7236842,3.97203947 11.5953947,4.40378289 L12.0888158,3.88569079 C13.1578947,2.76315789 15.2467105,2.78042763 16.2993421,3.88569079 C17.3519737,4.99095395 17.3355263,7.21875 16.2993421,8.30674342 L13.1414474,11.6225329 C12.1052632,12.7105263 9.98355263,12.7277961 8.93092105,11.6225329 C8.55263158,11.2253289 8.30592105,10.7245066 8.17434211,10.2064145 L5.92105263,12.5723684 C6.18421053,13.0213816 6.48026316,13.4358553 6.84210526,13.8157895 C8.94736842,16.0263158 13.1414474,16.0435855 15.2467105,13.8330592 L18.4210526,10.5 C20.5263158,8.28947368 20.5263158,3.86842105 18.4210526,1.65789474 C16.3157895,-0.552631579 12.1052632,-0.552631579 10,1.65789474 L10,1.65789474 L10,1.65789474 Z M8.40460526,16.5962171 L7.91118421,17.1143092 C6.84210526,18.2368421 4.75328947,18.2195724 3.70065789,17.1143092 C2.64802632,16.0090461 2.66447368,13.78125 3.70065789,12.6932566 L6.85855263,9.37746711 C7.89473684,8.28947368 10.0164474,8.27220395 11.0690789,9.37746711 C11.4473684,9.77467105 11.6940789,10.2754934 11.8256579,10.7935855 L14.0789474,8.42763158 C13.8157895,7.97861842 13.5197368,7.56414474 13.1578947,7.18421053 C11.0526316,4.97368421 6.85855263,4.95641447 4.75328947,7.16694079 L1.57894737,10.5 C-0.526315789,12.7105263 -0.526315789,17.1315789 1.57894737,19.3421053 C3.68421053,21.5526316 7.89473684,21.5526316 10,19.3421053 L12.2697368,16.9588816 C10.9539474,17.2351974 9.27631579,17.0279605 8.40460526,16.5962171 L8.40460526,16.5962171 L8.40460526,16.5962171 Z"></path>
	</symbol>
	<symbol id="anchor" viewBox="0 0 24 22">
		<path d="M23.9463284,11.622 L23.9503284,16.014 L22.2413284,15.3 C20.4643284,19.251 16.6163284,22 11.9813284,22 C7.34632837,22 3.49932837,19.251 1.72232837,15.3 L0.01332837,16.014 L0.01732837,11.622 C-0.05467163,11.355 0.10432837,11.081 0.37132837,11.01 L5.02532837,12.972 L3.37932837,14.301 C4.70332837,17.353 7.54032837,19.549 10.9823284,19.915 L10.9823284,7.858 C9.25932837,7.413 7.98132837,5.862 7.98132837,4 C7.98132837,1.791 9.77232837,0 11.9813284,0 C14.1903284,0 15.9813284,1.791 15.9813284,4 C15.9813284,5.862 14.7043284,7.413 12.9813284,7.858 L12.9813284,19.915 C16.4253284,19.548 19.2453284,17.343 20.5603284,14.282 L18.9373284,12.971 L23.5933284,11.009 C23.8583284,11.081 24.0173284,11.355 23.9463284,11.622 L23.9463284,11.622 Z M13.9813284,4 C13.9813284,2.896 13.0853284,2 11.9813284,2 C10.8773284,2 9.98132837,2.896 9.98132837,4 C9.98132837,5.104 10.8773284,6 11.9813284,6 C13.0853284,6 13.9813284,5.104 13.9813284,4 L13.9813284,4 Z"></path>
	</symbol>
	<symbol id="pill" viewBox="0 0 18 18">
        	<path d="M9.09107666,-0.0531740246 C8.94320182,-0.0779891915 8.79129134,-0.0909090909 8.63636364,-0.0909090909 C7.13319738,-0.0909090909 5.90909091,1.12777267 5.90909091,2.6310928 L5.90909091,15.3689072 C5.90909091,16.8697164 7.1301325,18.0909091 8.63636364,18.0909091 C8.79112479,18.0909091 8.94292788,18.0779909 9.09074153,18.053174 C7.80095427,17.8367323 6.81818182,16.7153464 6.81818182,15.3689072 L6.81818182,2.6310928 C6.81818182,1.28254966 7.80320383,0.16305119 9.09107666,-0.0531740246 Z M5,3.09556001 C5,0.833644676 6.8361597,-1 9.09090909,-1 C11.3502558,-1 13.1818182,0.827886142 13.1818182,3.09556001 L13.1818182,14.90444 C13.1818182,17.1663553 11.3456585,19 9.09090909,19 C6.83156239,19 5,17.1721139 5,14.90444 L5,3.09556001 Z" transform="translate(9.090909, 9.000000) rotate(45.000000) translate(-9.090909, -9.000000)"></path>
	</symbol>
</svg>

<svg xmlns="http://www.w3.org/2000/svg" display="none" version="1.1">
  <symbol id="dribbble" viewBox="0 0 20 20">
    <path fill="#ea4c89" d="M10 20C4.486 20 0 15.514 0 10S4.486 0 10 0s10 4.486 10 10-4.486 10-10 10zM9.462 7.205c-1.354-2.398-2.8-4.418-3.09-4.82C4.042 3.498 2.3 5.643 1.74 8.225h.084c.778 0 4.003-.064 7.636-1.02zm2.005 4.253c-4.627 1.612-6.38 4.77-6.62 5.245C6.275 17.803 8.06 18.46 10 18.46c1.156 0 2.258-.233 3.263-.655-.135-.786-.627-3.325-1.786-6.35-.004 0-.006.002-.01.003zm4.1-7.794c-1.488-1.306-3.437-2.1-5.567-2.1-.655 0-1.293.077-1.905.22.343.464 1.79 2.463 3.108 4.88 2.85-1.08 4.128-2.678 4.363-3zm-4.99 6.375l.282-.09c-.21-.45-.42-.91-.65-1.35-3.75 1.11-7.39 1.2-8.44 1.2-.1 0-.17 0-.22-.01-.01.07-.01.14-.01.21 0 2.14.8 4.1 2.12 5.59.35-.59 2.68-4.21 6.9-5.57zm2.588 1c1.05 2.9 1.506 5.28 1.62 5.93 1.85-1.28 3.167-3.27 3.55-5.58-.322-.1-1.703-.49-3.468-.49-.54 0-1.112.03-1.702.12zM11.9 8.01c.19.39.373.786.543 1.185l.17.405c.653-.08 1.305-.112 1.925-.112 1.92 0 3.53.3 3.908.38-.032-1.946-.726-3.735-1.867-5.15-.3.383-1.73 2.076-4.68 3.296z"/>
  </symbol>
  <symbol id="github" viewBox="0 0 20 20">
    <path fill="#4078c0" d="M10 0C4.477 0 0 4.59 0 10.253c0 4.53 2.865 8.373 6.84 9.73.5.093.68-.223.68-.495 0-.243-.007-.888-.012-1.744-2.782.62-3.37-1.374-3.37-1.374-.453-1.185-1.11-1.5-1.11-1.5-.907-.636.07-.624.07-.624 1.003.073 1.53 1.057 1.53 1.057.893 1.567 2.342 1.114 2.912.852.09-.662.35-1.114.635-1.37-2.22-.26-4.555-1.14-4.555-5.068 0-1.12.39-2.035 1.03-2.75-.104-.26-.447-1.303.097-2.715 0 0 .84-.275 2.75 1.052.797-.228 1.653-.342 2.503-.346.85.004 1.705.118 2.504.346 1.91-1.327 2.747-1.052 2.747-1.052.55 1.412.21 2.455.1 2.714.65.716 1.03 1.632 1.03 2.75 0 3.94-2.34 4.807-4.56 5.06.36.317.68.943.68 1.9 0 1.37-.01 2.476-.01 2.812 0 .274.18.593.69.493 3.96-1.35 6.82-5.19 6.82-9.72C20 4.59 15.53 0 10 0"/>
  </symbol>
  <symbol id="codepen" fill-rule="evenodd" viewBox="0 0 20 20">
    <path fill="#fff" d="M10 0C4.477 0 0 4.477 0 10s4.477 10 10 10 10-4.477 10-10S15.523 0 10 0zm5.12 10.89L13.79 10l1.33-.89v1.78zm-4.59 3.77v-2.48l2.305-1.54 1.86 1.243-4.164 2.776zM10 11.256L8.12 10 10 8.743 11.88 10 10 11.257zm-.53 3.402L5.305 11.88l1.86-1.242 2.304 1.54v2.48zM4.88 9.11l1.33.89-1.33.89V9.11zm4.59-3.77v2.48L7.164 9.36l-1.86-1.243L9.47 5.34zm1.06 0l4.165 2.777-1.86 1.244-2.304-1.54V5.34zm5.648 2.707c0-.008-.003-.015-.004-.023-.003-.015-.005-.03-.01-.045 0-.01-.005-.02-.007-.03l-.014-.04-.012-.03c0-.02-.01-.03-.01-.04l-.01-.03-.02-.04-.02-.027-.02-.03-.02-.02c-.01-.01-.02-.017-.03-.025l-.02-.02c-.002 0-.004-.005-.01-.007L10.3 3.9c-.18-.12-.41-.12-.59 0L4.052 7.675l-.008.007c-.01.01-.016.017-.024.02l-.03.028-.02.02c-.01.01-.02.02-.02.03l-.02.02-.02.03-.01.026-.02.035c-.002.01-.01.02-.01.03-.005.01-.01.03-.014.04l-.01.03-.01.05v.03c-.004.023-.006.046-.006.07v3.856l.01.044.01.022.012.04.01.02c.005.01.01.025.017.037l.01.022.025.038c.004.01.01.02.02.027l.023.03.02.02c.01.01.02.015.03.023l.027.02.008.006 5.65 3.77c.09.06.19.09.295.09.107 0 .21-.03.3-.09l5.65-3.77c0-.005.003-.008.006-.01.01-.004.015-.01.02-.02l.03-.022.02-.02.028-.03.016-.026c.01-.01.02-.02.026-.03l.014-.02.02-.036.015-.025.017-.04.01-.026.01-.045v-.02l.004-.07V8.11c0-.022 0-.045-.004-.07z"/>
  </symbol>
  <symbol id="twitter" viewBox="0 0 20 17">
    <path fill="#55acee" d="M6.29 17c-2.317 0-4.474-.71-6.29-1.928.32.04.648.06.98.06 1.92 0 3.69-.686 5.095-1.837-1.796-.035-3.31-1.276-3.833-2.98.25.05.507.076.772.076.374 0 .736-.05 1.08-.15C2.22 9.85.804 8.12.804 6.04v-.06c.554.32 1.187.513 1.86.535-1.1-.77-1.826-2.083-1.826-3.572 0-.786.202-1.524.555-2.157C3.416 3.382 6.44 5.09 9.85 5.27c-.07-.314-.107-.642-.107-.978C9.743 1.922 11.58 0 13.847 0c1.18 0 2.246.52 2.995 1.355.935-.192 1.813-.55 2.605-1.04-.306 1-.956 1.842-1.804 2.373.83-.104 1.62-.334 2.357-.676-.55.86-1.246 1.617-2.047 2.222.007.184.01.37.01.555C17.963 10.46 13.838 17 6.29 17"/>
  </symbol>
  <symbol id="experiment" viewBox="-3 0 20 20">
    <path d="M7 0C3.134 0 0 3.198 0 7.143c0 2.337 1.1 4.41 2.8 5.714v4.286c0 .79.627 1.428 1.4 1.428 0 .79.627 1.43 1.4 1.43h2.8c.773 0 1.4-.64 1.4-1.43.773 0 1.4-.63 1.4-1.42v-4.29c1.7-1.3 2.8-3.38 2.8-5.71C14 3.2 10.866 0 7 0zm2.8 16.43c0 .393-.313.713-.7.713H4.9c-.387 0-.7-.32-.7-.714v-.72h5.6v.71zm1.4-5.508c-.727.737-1.4.946-1.4 2.77v.594H8.4V11.43l2.8-2.86V7.144l-1.4-1.43-1.4 1.43L7 5.714l-1.4 1.43-1.4-1.43-1.4 1.43V8.57l2.8 2.86v2.856H4.2v-.595c0-1.82-.673-2.03-1.4-2.76-.87-1.01-1.4-2.33-1.4-3.78 0-3.16 2.507-5.72 5.6-5.72 3.093 0 5.6 2.56 5.6 5.72 0 1.45-.53 2.77-1.4 3.78zM7 11.43L4.2 8.57V7.144L5.6 8.57 7 7.144 8.4 8.57l1.4-1.427V8.57L7 11.43z"/>
  </symbol>
  <symbol id="link" viewBox="0 0 20 21">
    <path d="M10 1.658L7.73 4.04c1.316-.275 2.994-.068 3.865.364l.494-.518c1.06-1.123 3.15-1.106 4.21 0 1.05 1.105 1.03 3.333 0 4.42l-3.16 3.317c-1.04 1.088-3.16 1.105-4.21 0-.38-.398-.63-.898-.76-1.417l-2.25 2.366c.26.45.56.864.92 1.244 2.1 2.21 6.3 2.228 8.4.017l3.18-3.333c2.1-2.21 2.1-6.632 0-8.842-2.11-2.21-6.32-2.21-8.42 0zM8.405 16.596l-.494.518c-1.06 1.123-3.15 1.106-4.21 0-1.05-1.105-1.03-3.333 0-4.42l3.16-3.317c1.04-1.088 3.16-1.105 4.21 0 .38.398.63.898.76 1.417l2.26-2.366c-.26-.45-.56-.864-.92-1.244-2.1-2.21-6.3-2.228-8.4-.017L1.58 10.5c-2.106 2.21-2.106 6.632 0 8.842 2.104 2.21 6.315 2.21 8.42 0l2.27-2.383c-1.316.27-2.994.06-3.865-.37z"/>
  </symbol>
  <symbol id="anchor" viewBox="0 0 24 22">
    <path d="M23.946 11.622l.004 4.392-1.71-.714c-1.776 3.95-5.624 6.7-10.26 6.7-4.634 0-8.48-2.75-10.258-6.7l-1.71.714.005-4.392c-.072-.267.087-.54.354-.612l4.66 1.962-1.64 1.33c1.33 3.05 4.16 5.247 7.61 5.613V7.858C9.28 7.413 8 5.862 8 4c0-2.21 1.79-4 4-4 2.207 0 4 1.79 4 4 0 1.862-1.28 3.413-3 3.858v12.057c3.442-.367 6.262-2.572 7.577-5.633l-1.62-1.31 4.65-1.962c.264.07.423.34.352.61zM13.98 4c0-1.104-.895-2-2-2-1.103 0-2 .896-2 2s.897 2 2 2c1.105 0 2-.896 2-2z"/>
  </symbol>
  <symbol id="pill" viewBox="0 0 18 18">
    <path d="M15.493 2.6c-.087-.124-.186-.24-.295-.35-1.063-1.063-2.79-1.066-3.853-.003l-9.007 9.007c-1.062 1.06-1.062 2.788.003 3.853.11.11.23.207.35.294-.76-1.06-.66-2.55.29-3.5l9.01-9.01c.96-.95 2.45-1.05 3.51-.29zm-5.12-.668c1.6-1.6 4.195-1.597 5.79-.003 1.597 1.59 1.6 4.18-.004 5.78l-8.35 8.35c-1.6 1.6-4.2 1.59-5.79 0-1.6-1.6-1.6-4.19 0-5.79l8.35-8.35z"/>
  </symbol>
</svg>
